static/fa/svgs/solid/solar-panel.svg

<svg xmlns="http://www.w3.org/2000/svg" viewBox="0 0 640 512"><!--! Font Awesome Free 6.1.1 by @fontawesome - https://fontawesome.com License - https://fontawesome.com/license/free (Icons: CC BY 4.0, Fonts: SIL OFL 1.1, Code: MIT License) Copyright 2022 Fonticons, Inc.--><path d="M575.4 25.72C572.4 10.78 559.2 0 543.1 0H96C80.75 0 67.61 10.78 64.62 25.72l-63.1 320c-1.891 9.406.547 19.16 6.625 26.56S22.41 384 32 384h255.1v64.25h-47.3c-26.26 0-47.75 21.49-47.75 47.75 0 8.844 7.168 16.01 16.01 16l223.1-.167c8.828-.01 15.99-7.17 15.99-16C447.1 469.5 426.6 448 400.2 448h-48.28v-64h256c9.594 0 18.67-4.312 24.75-11.72s8.516-17.16 6.625-26.56l-63.895-320zM517.8 64l19.2 96h-97.98l-9.82-96h88.6zm-137.7 0 9.617 96H250l9.873-96H380.1zm-169.3 0-9.8 96h-97.9l19.18-96h88.52zM71.16 320l22.28-112h102.7L184.6 320H71.16zm162.64 0 11.37-112h149.7l11.33 112H233.8zm221.6 0-11.5-112h102.7l22.28 112H455.4z"/></svg>

<svg xmlns="http://www.w3.org/2000/svg" viewBox="0 0 640 512"><!--! Font Awesome Free 6.1.1 by @fontawesome - https://fontawesome.com License - https://fontawesome.com/license/free (Icons: CC BY 4.0, Fonts: SIL OFL 1.1, Code: MIT License) Copyright 2022 Fonticons, Inc. --><path d="M575.4 25.72C572.4 10.78 559.2 0 543.1 0H96c-15.25 0-28.39 10.78-31.38 25.72l-63.1 320c-1.891 9.406 .5469 19.16 6.625 26.56S22.41 384 32 384h255.1v64.25H239.8c-26.26 0-47.75 21.49-47.75 47.75c0 8.844 7.168 16.01 16.01 16l223.1-.1667c8.828-.0098 15.99-7.17 15.99-16C447.1 469.5 426.6 448 400.2 448h-48.28v-64h256c9.594 0 18.67-4.312 24.75-11.72s8.516-17.16 6.625-26.56L575.4 25.72zM517.8 64l19.2 96h-97.98L429.2 64H517.8zM380.1 64l9.617 96H250l9.873-96H380.1zM210.8 64L201 160H103.1l19.18-96H210.8zM71.16 320l22.28-112h102.7L184.6 320H71.16zM233.8 320l11.37-112h149.7L406.2 320H233.8zM455.4 320l-11.5-112h102.7l22.28 112H455.4z"/></svg>
